X:1
T:Title
%%score { ( 1 3 ) | ( 2 4 ) }
L:1/8
M:9/8
K:Eb
V:1 treble nm="Grand Piano"
V:3 treble 
V:2 bass 
V:4 bass 
V:1
 z3 z3[Q:1/4=100] B=Ac | B3 G3 [A,DF][G,E][B,DF] | [B,EG]6 [A,EA][EB][Ec] | [EB]3 [Ge]3 GFE | %4
 z3 A,3 B=Ac | B3 G3 [A,DF][G,E][B,DF] | [B,EG]6 [A,EA][EB][Ec] | [EB]3 [Ge]2 [EG] [GB][FA][DF] | %8
[M:3/4] E6 |[M:3/8] cBA |[M:9/8] [Ec]3 [Ac]3 z3 | [GB]6 z3 | d3 z3 z3 | B6 z3 | [GB]3 [EG]3 z3 | %15
 c6 z3 | [GB]3 .[Ge]3 z3 |[M:3/4] [G,E]6 |] %18
V:2
 z3 z3 [E,G,E][E,_G,E][E,A,E] | [E,G,E]3 [E,B,E]3 B,,B,,B,, | E,6 C,[B,,G,][A,,A,] | %3
 [E,G,]3 [E,B,]3 [E,B,E][F,B,D][G,B,] | [B,,B,]6 [E,G,E][E,_G,E][E,A,E] | %5
 [E,G,E]3 [E,B,E]3 B,,B,,B,, | E,6 C,[B,,G,][A,,A,] | %7
 [E,G,]3 [E,B,]2 [E,B,] [B,,B,][B,,B,][B,,A,] |[M:3/4] [E,G,]6 |[M:3/8] E_DC | %10
[M:9/8] [A,,A,]A,,A,, A,,2 A,,[K:treble] GFE | E,E,E, E,3[K:treble] G_G=G | %12
 F-[F,F-][F,F] F2 F[K:bass] [F,=A,]2 [F,A,] | B,,B,,B,, B,,3[K:treble] G_GA | %14
 E,E,E, E,2 E, E,F,G, | A,,A,,A,, A,,3[K:treble] CEA | E,E,E, [E,B,]E,E, B,,B,,B,, |[M:3/4] E,6 |] %18
V:3
 x9 | x9 | x9 | x9 | [DF]6 z3 | x9 | x9 | x9 |[M:3/4] x6 |[M:3/8] x3 |[M:9/8] z A,A, E2 E BAG | %11
 EEE E3 B=AB | z B,B, d2 d [Ge][Fd][Ec] | [B,D][DF][EG] [FA]3 B=Ac | EEE B,2 B, [B,EG][DEF][_DE] | %15
 [CE][EA][EA] [EA]3 ABc | EEE z B,[B,EG] [B,GB][B,FA][A,DF] |[M:3/4] x6 |] %18
V:4
 x9 | x9 | x9 | x9 | x9 | x9 | x9 | x9 |[M:3/4] x6 |[M:3/8] x3 |[M:9/8] x6[K:treble] x3 | %11
 x6[K:treble] x3 | .[F,B,]3 [F,B,]3[K:bass] z3 | x6[K:treble] x3 | x9 | x6[K:treble] x3 | x9 | %17
[M:3/4] x6 |] %18

